X:13048
T:Morning Star Reel, The
R:Reel
C:Trad.
O:Ireland
Z:Paul Hardy's Session Tunebook 2015 (see www.paulhardy.net). Creative Commons cc by-nc-sa licenced.
M:4/4
L:1/8
Q:3/8=120
K:G
"G"B2 BA "Em"BGEF|"G"G2 Bd "Em"ef g2|"G"B2 BA "Em"BGEF|"G"GB "D"AF "G"G2 GA:|
"Bm"Bdef "Em"g2 eg|"Bm"f2 df "Em"edBA|"Bm"Bdef "G"g2 fg|"D"afdf "Em"e3 d|
"Bm"Bdef "Em"g2 eg|"Bm"f2 df "Em"edBA|"G"Bd "A"d^c "D"d2 de|fgaf "Em"gfed||"^Last"e4|]
% --------------------------------- N ---------------------------------------

